X:1
T:Standin In The Need of Prayer
T:I am trav'ling to the grave
T:Copyright 1881 by The Riverside Press
T:Rodeheaver's Plantation Melodies
Z:Rodeheaver's Plantation Melodies
L:1/8
Q:1/4=70
M:4/4
K:Eb
V:1 treble nm="Soprano" snm="S."
V:1
 G>F | E2 E2 B3 G | B6 G>F | E2 E2 B3 G | E2 DC B,2 CD | E2 E2 B3 G | B6 cB | G2 E2 F3 E | %8
w: I'm a|trav'- ling to the|grave. I'm a|trav'- ling to the|grave my- * Lord. I'm a|trav'- ling to the|grave. For to|lay this bo- dy|
 E6!fine! || B2 | c2 c2 c3 c | c2 B4 BB | e2 e2 e3 B | %13
w: down.|My|Mas- sa died a|shou- ting. Sing- ing|glo- ry hal- le-|
"_2. My missis died a shouting\n\n3. My brother died a shouting\n\n4. My sister died a shouting" c2 B4 B2 | %14
w: lu- jah. The|
 e4 B3 G | d2 d2 E2 EF | G2 E2({EG)} F3 E | E6!D.C.! |] %18
w: last word he|said to me Was a-|bout- Je- ru- sa-|lem.|

